src/32x32/places/folder-gruvbox-material-orange-github.svg

<svg xmlns="http://www.w3.org/2000/svg" width="32" height="32" version="1">
 <rect style="opacity:0.2" width="28" height="18" x="2" y="11" rx="1.4" ry="1.4"/>
 <path style="fill:#c35e0a" d="M 2,22.6 C 2,23.376 2.6244,24 3.4,24 H 28.6 C 29.376,24 30,23.376 30,22.6 V 7.4 C 30,6.6244 29.376,6 28.6,6 H 16 C 13.9,6 13.2,3 11.1,3 H 3.4 C 2.6244,3 2,3.6244 2,4.4"/>
 <rect style="opacity:0.2" width="28" height="18" x="2" y="9" rx="1.4" ry="1.4"/>
 <rect style="fill:#F5E4C1" width="24" height="11" x="4" y="8" rx="1.4" ry="1.4"/>
 <rect style="fill:#e78a4e" width="28" height="18" x="2" y="10" rx="1.4" ry="1.4"/>
 <path style="opacity:0.1;fill:#F5E4C1" d="M 3.4004,3 C 2.6248,3 2,3.6248 2,4.4004 V 5.4004 C 2,4.6248 2.6248,4 3.4004,4 H 11.1 C 13.2,4 13.9,7 16,7 H 28.6 C 29.375,7 30,7.6248 30,8.4004 V 7.4004 C 30,6.6248 29.375,6 28.6,6 H 16 C 13.9,6 13.2,3 11.1,3 Z"/>
 <path style="fill:#564135" d="m 16,14 c -2.761424,0 -5,2.238576 -5,5 7.92e-4,2.207084 1.448598,4.152573 3.5625,4.787109 v -0.804687 c -1.265656,0.2793 -1.630859,-0.556641 -1.630859,-0.556641 -0.206993,-0.534138 -0.50586,-0.478156 -0.50586,-0.478156 -0.413144,-0.28665 0.03125,-0.28125 0.03125,-0.28125 0.347602,0.06261 0.658903,0.39224 0.895691,0.633129 0.164431,0.167279 0.184879,0.270156 0.605672,0.300926 0.258577,0.0367 0.49603,-0.01639 0.619731,-0.07286 0.01736,-0.125399 0.0194,-0.577036 0.02734,-0.814677 C 13.618537,21.281097 13.000263,20.428902 13,19.5 c 0.0014,-0.710006 0.364949,-1.386038 1,-1.859375 V 16 c 0.326285,0 0.718404,0.577667 1.037109,1.134766 C 15.347088,17.046328 15.672359,17.000803 16,17 c 0.327641,8.03e-4 0.652912,0.04633 0.962891,0.134766 C 17.281596,16.577667 17.673715,16 18,16 v 1.638672 c 0.635658,0.473791 0.999296,1.150641 1,1.861328 -0.0014,1.05337 -0.79497,1.993 -1.984375,2.349609 0.01555,0.332327 0.03711,0.714925 0.03711,1.013672 0,0.5207 -0.0028,0.35915 -0.0039,0.574219 v 0.445312 C 19.351442,23.388806 20.997199,21.355003 21,19 21,16.238576 18.761424,14 16,14 Z"/>
</svg>

<?xml version="1.0" encoding="UTF-8"?>
<svg width="32" height="32" version="1" xmlns="http://www.w3.org/2000/svg">
 <rect x="2" y="11" width="28" height="18" rx="1.4" ry="1.4" opacity=".2"/>
 <path d="m2 22.6c0 0.776 0.6244 1.4 1.4 1.4h25.2c0.776 0 1.4-0.624 1.4-1.4v-15.2c0-0.7756-0.624-1.4-1.4-1.4h-12.6c-2.1 0-2.8-3-4.9-3h-7.7c-0.7756 0-1.4 0.6244-1.4 1.4" fill="#c35e0a"/>
 <rect x="2" y="9" width="28" height="18" rx="1.4" ry="1.4" opacity=".2"/>
 <rect x="4" y="8" width="24" height="11" rx="1.4" ry="1.4" fill="#F5E4C1"/>
 <rect x="2" y="10" width="28" height="18" rx="1.4" ry="1.4" fill="#e78a4e"/>
 <path d="m3.4004 3c-0.7756 0-1.4004 0.6248-1.4004 1.4004v1c0-0.7756 0.6248-1.4004 1.4004-1.4004h7.6996c2.1 0 2.8 3 4.9 3h12.6c0.775 0 1.4 0.6248 1.4 1.4004v-1c0-0.7756-0.625-1.4004-1.4-1.4004h-12.6c-2.1 0-2.8-3-4.9-3z" fill="#F5E4C1" opacity=".1"/>
 <path d="m16 14c-2.7614 0-5 2.2386-5 5 7.92e-4 2.2071 1.4486 4.1526 3.5625 4.7871v-0.80469c-1.2657 0.2793-1.6309-0.55664-1.6309-0.55664-0.20699-0.53414-0.50586-0.47816-0.50586-0.47816-0.41314-0.28665 0.03125-0.28125 0.03125-0.28125 0.3476 0.06261 0.6589 0.39224 0.89569 0.63313 0.16443 0.16728 0.18488 0.27016 0.60567 0.30093 0.25858 0.0367 0.49603-0.01639 0.61973-0.07286 0.01736-0.1254 0.0194-0.57704 0.02734-0.81468-0.98693-0.4318-1.6052-1.284-1.6055-2.2129 0.0014-0.71001 0.36495-1.386 1-1.8594v-1.6406c0.32628 0 0.7184 0.57767 1.0371 1.1348 0.30998-0.088438 0.63525-0.13396 0.96289-0.13477 0.32764 8.03e-4 0.65291 0.04633 0.96289 0.13477 0.3187-0.5571 0.71082-1.1348 1.0371-1.1348v1.6387c0.63566 0.47379 0.9993 1.1506 1 1.8613-0.0014 1.0534-0.79497 1.993-1.9844 2.3496 0.01555 0.33233 0.03711 0.71492 0.03711 1.0137 0 0.5207-0.0028 0.35915-0.0039 0.57422v0.44531c2.3026-0.49401 3.9484-2.5278 3.9512-4.8828 0-2.7614-2.2386-5-5-5z" fill="#564135"/>
</svg>
